assets/day16.svg

<svg width="35" height="25" viewBox="0 0 35 25" fill="none" xmlns="http://www.w3.org/2000/svg">
<mask id="path-1-inside-1_108_8680" fill="white">
<path d="M11.0114 0.727272V24H6.09091V5.39773H5.95455L0.625 8.73864V4.375L6.38636 0.727272H11.0114ZM25.4744 24.3182C24.2775 24.3106 23.1222 24.1098 22.0085 23.7159C20.9025 23.322 19.91 22.6818 19.0312 21.7955C18.1525 20.9091 17.4555 19.7348 16.9403 18.2727C16.4328 16.8106 16.179 15.0152 16.179 12.8864C16.1866 10.9318 16.41 9.18561 16.8494 7.64773C17.2964 6.10227 17.9328 4.79167 18.7585 3.71591C19.5919 2.64015 20.5881 1.82197 21.7472 1.26136C22.9063 0.693181 24.2055 0.40909 25.6449 0.40909C27.1979 0.40909 28.5691 0.712121 29.7585 1.31818C30.9479 1.91667 31.9025 2.73106 32.6222 3.76136C33.3494 4.79167 33.7888 5.94697 33.9403 7.22727H29.0881C28.8987 6.41667 28.5009 5.7803 27.8949 5.31818C27.2888 4.85606 26.5388 4.625 25.6449 4.625C24.1297 4.625 22.9782 5.28409 22.1903 6.60227C21.41 7.92045 21.0123 9.71212 20.9972 11.9773H21.1562C21.5047 11.2879 21.9744 10.7008 22.5653 10.2159C23.1638 9.72348 23.8419 9.34848 24.5994 9.09091C25.3646 8.82576 26.1714 8.69318 27.0199 8.69318C28.3987 8.69318 29.6259 9.01894 30.7017 9.67045C31.7775 10.3144 32.6259 11.2008 33.2472 12.3295C33.8684 13.4583 34.179 14.75 34.179 16.2045C34.179 17.7803 33.8116 19.1818 33.0767 20.4091C32.3494 21.6364 31.3305 22.5985 30.0199 23.2955C28.7169 23.9848 27.2017 24.3258 25.4744 24.3182ZM25.4517 20.4545C26.2093 20.4545 26.8873 20.2727 27.4858 19.9091C28.0843 19.5455 28.554 19.053 28.8949 18.4318C29.2358 17.8106 29.4062 17.1136 29.4062 16.3409C29.4062 15.5682 29.2358 14.875 28.8949 14.2614C28.5616 13.6477 28.0994 13.1591 27.5085 12.7955C26.9176 12.4318 26.2434 12.25 25.4858 12.25C24.9176 12.25 24.3911 12.3561 23.9062 12.5682C23.429 12.7803 23.0085 13.0758 22.6449 13.4545C22.2888 13.8333 22.0085 14.2727 21.804 14.7727C21.5994 15.2652 21.4972 15.7917 21.4972 16.3523C21.4972 17.1023 21.6676 17.7879 22.0085 18.4091C22.357 19.0303 22.8267 19.5265 23.4176 19.8977C24.0161 20.2689 24.6941 20.4545 25.4517 20.4545Z"/>
</mask>
<path d="M11.0114 0.727272V24H6.09091V5.39773H5.95455L0.625 8.73864V4.375L6.38636 0.727272H11.0114ZM25.4744 24.3182C24.2775 24.3106 23.1222 24.1098 22.0085 23.7159C20.9025 23.322 19.91 22.6818 19.0312 21.7955C18.1525 20.9091 17.4555 19.7348 16.9403 18.2727C16.4328 16.8106 16.179 15.0152 16.179 12.8864C16.1866 10.9318 16.41 9.18561 16.8494 7.64773C17.2964 6.10227 17.9328 4.79167 18.7585 3.71591C19.5919 2.64015 20.5881 1.82197 21.7472 1.26136C22.9063 0.693181 24.2055 0.40909 25.6449 0.40909C27.1979 0.40909 28.5691 0.712121 29.7585 1.31818C30.9479 1.91667 31.9025 2.73106 32.6222 3.76136C33.3494 4.79167 33.7888 5.94697 33.9403 7.22727H29.0881C28.8987 6.41667 28.5009 5.7803 27.8949 5.31818C27.2888 4.85606 26.5388 4.625 25.6449 4.625C24.1297 4.625 22.9782 5.28409 22.1903 6.60227C21.41 7.92045 21.0123 9.71212 20.9972 11.9773H21.1562C21.5047 11.2879 21.9744 10.7008 22.5653 10.2159C23.1638 9.72348 23.8419 9.34848 24.5994 9.09091C25.3646 8.82576 26.1714 8.69318 27.0199 8.69318C28.3987 8.69318 29.6259 9.01894 30.7017 9.67045C31.7775 10.3144 32.6259 11.2008 33.2472 12.3295C33.8684 13.4583 34.179 14.75 34.179 16.2045C34.179 17.7803 33.8116 19.1818 33.0767 20.4091C32.3494 21.6364 31.3305 22.5985 30.0199 23.2955C28.7169 23.9848 27.2017 24.3258 25.4744 24.3182ZM25.4517 20.4545C26.2093 20.4545 26.8873 20.2727 27.4858 19.9091C28.0843 19.5455 28.554 19.053 28.8949 18.4318C29.2358 17.8106 29.4062 17.1136 29.4062 16.3409C29.4062 15.5682 29.2358 14.875 28.8949 14.2614C28.5616 13.6477 28.0994 13.1591 27.5085 12.7955C26.9176 12.4318 26.2434 12.25 25.4858 12.25C24.9176 12.25 24.3911 12.3561 23.9062 12.5682C23.429 12.7803 23.0085 13.0758 22.6449 13.4545C22.2888 13.8333 22.0085 14.2727 21.804 14.7727C21.5994 15.2652 21.4972 15.7917 21.4972 16.3523C21.4972 17.1023 21.6676 17.7879 22.0085 18.4091C22.357 19.0303 22.8267 19.5265 23.4176 19.8977C24.0161 20.2689 24.6941 20.4545 25.4517 20.4545Z" fill="url(#paint0_linear_108_8680)"/>
<path d="M11.0114 0.727272H12.0114V-0.272728H11.0114V0.727272ZM11.0114 24V25H12.0114V24H11.0114ZM6.09091 24H5.09091V25H6.09091V24ZM6.09091 5.39773H7.09091V4.39773H6.09091V5.39773ZM5.95455 5.39773V4.39773H5.66702L5.42341 4.55044L5.95455 5.39773ZM0.625 8.73864H-0.375V10.5457L1.15614 9.58592L0.625 8.73864ZM0.625 4.375L0.0900668 3.53011L-0.375 3.82456V4.375H0.625ZM6.38636 0.727272V-0.272728H6.09641L5.85143 -0.117622L6.38636 0.727272ZM10.0114 0.727272V24H12.0114V0.727272H10.0114ZM11.0114 23H6.09091V25H11.0114V23ZM7.09091 24V5.39773H5.09091V24H7.09091ZM6.09091 4.39773H5.95455V6.39773H6.09091V4.39773ZM5.42341 4.55044L0.0938647 7.89135L1.15614 9.58592L6.48568 6.24501L5.42341 4.55044ZM1.625 8.73864V4.375H-0.375V8.73864H1.625ZM1.15993 5.21989L6.9213 1.57217L5.85143 -0.117622L0.0900668 3.53011L1.15993 5.21989ZM6.38636 1.72727H11.0114V-0.272728H6.38636V1.72727ZM25.4744 24.3182L25.4681 25.3182L25.47 25.3182L25.4744 24.3182ZM22.0085 23.7159L21.673 24.6579L21.675 24.6587L22.0085 23.7159ZM19.0312 21.7955L18.3211 22.4995L19.0312 21.7955ZM16.9403 18.2727L15.9956 18.6007L15.9972 18.605L16.9403 18.2727ZM16.179 12.8864L15.179 12.8825V12.8864H16.179ZM16.8494 7.64773L15.8888 7.3699L15.8879 7.373L16.8494 7.64773ZM18.7585 3.71591L17.968 3.1035L17.9653 3.10701L18.7585 3.71591ZM21.7472 1.26136L22.1826 2.16161L22.1873 2.15928L21.7472 1.26136ZM29.7585 1.31818L29.3045 2.20919L29.309 2.21147L29.7585 1.31818ZM32.6222 3.76136L31.8024 4.33402L31.8052 4.33805L32.6222 3.76136ZM33.9403 7.22727V8.22727H35.0657L34.9334 7.10975L33.9403 7.22727ZM29.0881 7.22727L28.1143 7.45479L28.2948 8.22727H29.0881V7.22727ZM22.1903 6.60227L21.332 6.08922L21.3298 6.09288L22.1903 6.60227ZM20.9972 11.9773L19.9972 11.9706L19.9904 12.9773H20.9972V11.9773ZM21.1562 11.9773V12.9773H21.7713L22.0487 12.4284L21.1562 11.9773ZM22.5653 10.2159L23.1997 10.989L23.2007 10.9881L22.5653 10.2159ZM24.5994 9.09091L24.9213 10.0377L24.9269 10.0358L24.5994 9.09091ZM30.7017 9.67045L30.1837 10.5258L30.1881 10.5285L30.7017 9.67045ZM33.0767 20.4091L32.2187 19.8954L32.2164 19.8993L33.0767 20.4091ZM30.0199 23.2955L30.4875 24.1794L30.4894 24.1784L30.0199 23.2955ZM27.4858 19.9091L28.0051 20.7637L27.4858 19.9091ZM28.8949 18.4318L29.7716 18.9129H29.7716L28.8949 18.4318ZM28.8949 14.2614L28.0161 14.7387L28.0207 14.747L28.8949 14.2614ZM27.5085 12.7955L28.0326 11.9438L28.0326 11.9438L27.5085 12.7955ZM23.9062 12.5682L23.5054 11.652L23.5001 11.6544L23.9062 12.5682ZM22.6449 13.4545L21.9235 12.762L21.9163 12.7696L22.6449 13.4545ZM21.804 14.7727L22.7275 15.1563L22.7295 15.1514L21.804 14.7727ZM22.0085 18.4091L21.1318 18.8902L21.1364 18.8983L22.0085 18.4091ZM23.4176 19.8977L22.8857 20.7445L22.8905 20.7475L23.4176 19.8977ZM25.4808 23.3182C24.3938 23.3113 23.3491 23.1294 22.342 22.7732L21.675 24.6587C22.8952 25.0903 24.1612 25.3099 25.4681 25.3182L25.4808 23.3182ZM22.344 22.7739C21.3879 22.4333 20.5215 21.8782 19.7414 21.0914L18.3211 22.4995C19.2986 23.4854 20.417 24.2106 21.673 24.6579L22.344 22.7739ZM19.7414 21.0914C18.9889 20.3324 18.3611 19.2959 17.8835 17.9404L15.9972 18.605C16.5499 20.1738 17.316 21.4857 18.3211 22.4995L19.7414 21.0914ZM17.885 17.9448C17.425 16.6195 17.179 14.9424 17.179 12.8864H15.179C15.179 15.0879 15.4406 17.0017 15.9956 18.6007L17.885 17.9448ZM17.179 12.8902C17.1863 11.0078 17.4016 9.35527 17.811 7.92245L15.8879 7.373C15.4185 9.01594 15.1868 10.8558 15.179 12.8825L17.179 12.8902ZM17.8101 7.92556C18.2287 6.47808 18.8147 5.28504 19.5518 4.32481L17.9653 3.10701C17.0508 4.29829 16.3641 5.72647 15.8888 7.3699L17.8101 7.92556ZM19.5491 4.32831C20.2934 3.3675 21.1704 2.65115 22.1826 2.1616L21.3118 0.361129C20.0058 0.99279 18.8904 1.9128 17.968 3.10351L19.5491 4.32831ZM22.1873 2.15928C23.1943 1.66566 24.3403 1.40909 25.6449 1.40909V-0.59091C24.0706 -0.59091 22.6182 -0.279295 21.307 0.363441L22.1873 2.15928ZM25.6449 1.40909C27.0659 1.40909 28.277 1.68563 29.3045 2.20918L30.2125 0.427186C28.8612 -0.261388 27.3299 -0.59091 25.6449 -0.59091V1.40909ZM29.309 2.21147C30.3594 2.74 31.1833 3.44774 31.8024 4.33402L33.442 3.18871C32.6217 2.01438 31.5364 1.09333 30.208 0.424895L29.309 2.21147ZM31.8052 4.33805C32.4343 5.22922 32.8149 6.22598 32.9473 7.3448L34.9334 7.10975C34.7628 5.66796 34.2646 4.35412 33.4391 3.18468L31.8052 4.33805ZM33.9403 6.22727H29.0881V8.22727H33.9403V6.22727ZM30.0618 6.99975C29.8248 5.98532 29.3094 5.13922 28.5012 4.52298L27.2885 6.11339C27.6925 6.42138 27.9725 6.84801 28.1143 7.45479L30.0618 6.99975ZM28.5012 4.52298C27.6921 3.906 26.7186 3.625 25.6449 3.625V5.625C26.3591 5.625 26.8856 5.80613 27.2885 6.11339L28.5012 4.52298ZM25.6449 3.625C23.772 3.625 22.2974 4.47406 21.332 6.08923L23.0487 7.11532C23.6591 6.09412 24.4874 5.625 25.6449 5.625V3.625ZM21.3298 6.09288C20.4262 7.6193 20.013 9.6074 19.9972 11.9706L21.9971 11.984C22.0116 9.81684 22.3938 8.22161 23.0509 7.11167L21.3298 6.09288ZM20.9972 12.9773H21.1562V10.9773H20.9972V12.9773ZM22.0487 12.4284C22.3351 11.8617 22.7174 11.3847 23.1997 10.989L21.931 9.44284C21.2315 10.0168 20.6743 10.714 20.2638 11.5261L22.0487 12.4284ZM23.2007 10.9881C23.7031 10.5748 24.2742 10.2577 24.9213 10.0377L24.2775 8.14414C23.4096 8.43924 22.6246 8.87218 21.93 9.4437L23.2007 10.9881ZM24.9269 10.0358C25.5817 9.80884 26.2775 9.69318 27.0199 9.69318V7.69318C26.0653 7.69318 25.1474 7.84267 24.272 8.14603L24.9269 10.0358ZM27.0199 9.69318C28.2342 9.69318 29.279 9.9779 30.1837 10.5258L31.2197 8.81509C29.9729 8.05998 28.5632 7.69318 27.0199 7.69318V9.69318ZM30.1881 10.5285C31.1075 11.0788 31.8328 11.8336 32.3711 12.8117L34.1233 11.8474C33.4191 10.5679 32.4474 9.54994 31.2153 8.81243L30.1881 10.5285ZM32.3711 12.8117C32.901 13.7746 33.179 14.8965 33.179 16.2045H35.179C35.179 14.6035 34.8358 13.1421 34.1233 11.8474L32.3711 12.8117ZM33.179 16.2045C33.179 17.6183 32.8514 18.8388 32.2187 19.8954L33.9347 20.9228C34.7717 19.5248 35.179 17.9423 35.179 16.2045H33.179ZM32.2164 19.8993C31.5866 20.9621 30.7058 21.7981 29.5504 22.4125L30.4894 24.1784C31.9552 23.3989 33.1123 22.3106 33.937 20.9189L32.2164 19.8993ZM29.5522 22.4115C28.4177 23.0118 27.0699 23.3252 25.4788 23.3182L25.47 25.3182C27.3335 25.3263 29.016 24.9579 30.4875 24.1794L29.5522 22.4115ZM25.4517 21.4545C26.3769 21.4545 27.2373 21.2302 28.0051 20.7637L26.9665 19.0545C26.5373 19.3153 26.0417 19.4545 25.4517 19.4545V21.4545ZM28.0051 20.7637C28.7552 20.3079 29.3474 19.6859 29.7716 18.9129L28.0182 17.9507C27.7606 18.4202 27.4133 18.783 26.9665 19.0545L28.0051 20.7637ZM29.7716 18.9129C30.2006 18.1312 30.4062 17.2662 30.4062 16.3409H28.4062C28.4062 16.9611 28.271 17.4901 28.0182 17.9507L29.7716 18.9129ZM30.4062 16.3409C30.4062 15.4158 30.2006 14.5525 29.769 13.7757L28.0207 14.747C28.271 15.1975 28.4062 15.7206 28.4062 16.3409H30.4062ZM29.7736 13.784C29.3574 13.0178 28.7734 12.3997 28.0326 11.9438L26.9844 13.6471C27.4254 13.9185 27.7657 14.2776 28.0162 14.7387L29.7736 13.784ZM28.0326 11.9438C27.2698 11.4743 26.4108 11.25 25.4858 11.25V13.25C26.0759 13.25 26.5655 13.3893 26.9844 13.6471L28.0326 11.9438ZM25.4858 11.25C24.79 11.25 24.1258 11.3806 23.5054 11.652L24.3071 13.4843C24.6564 13.3315 25.0453 13.25 25.4858 13.25V11.25ZM23.5001 11.6544C22.9038 11.9194 22.3764 12.2902 21.9235 12.762L23.3663 14.1471C23.6407 13.8613 23.9542 13.6412 24.3124 13.482L23.5001 11.6544ZM21.9163 12.7696C21.4731 13.2411 21.1275 13.7853 20.8784 14.3941L22.7295 15.1514C22.8896 14.7601 23.1046 14.4256 23.3735 14.1395L21.9163 12.7696ZM20.8805 14.3891C20.6229 15.0093 20.4972 15.6669 20.4972 16.3523H22.4972C22.4972 15.9164 22.576 15.521 22.7275 15.1563L20.8805 14.3891ZM20.4972 16.3523C20.4972 17.2603 20.7053 18.1129 21.1319 18.8902L22.8852 17.928C22.6299 17.4629 22.4972 16.9442 22.4972 16.3523H20.4972ZM21.1364 18.8983C21.5648 19.6621 22.1502 20.2825 22.8857 20.7445L23.9496 19.051C23.5032 18.7705 23.1492 18.3985 22.8807 17.9198L21.1364 18.8983ZM22.8905 20.7475C23.6593 21.2244 24.5225 21.4545 25.4517 21.4545V19.4545C24.8657 19.4545 24.3729 19.3135 23.9447 19.0479L22.8905 20.7475Z" fill="url(#paint1_linear_108_8680)" mask="url(#path-1-inside-1_108_8680)"/>
<defs>
<linearGradient id="paint0_linear_108_8680" x1="30" y1="25" x2="30" y2="-3.30914e-07" gradientUnits="userSpaceOnUse">
<stop stop-color="#FFF0DA"/>
<stop offset="0.0416667" stop-color="#94641E"/>
<stop offset="0.828125" stop-color="#FFF2DB"/>
<stop offset="0.9375" stop-color="#EAC885"/>
<stop offset="0.979167" stop-color="#FBF5D1"/>
<stop offset="0.9999" stop-color="#BD9A4B"/>
<stop offset="1" stop-color="#ECD8A3"/>
</linearGradient>
<linearGradient id="paint1_linear_108_8680" x1="17.5" y1="4.24359" x2="17.5" y2="21.3462" gradientUnits="userSpaceOnUse">
<stop stop-color="#FCF6D1"/>
<stop offset="0.104167" stop-color="#BD9457"/>
<stop offset="0.25" stop-color="#E3CA89"/>
<stop offset="0.697917" stop-color="#FEE8C8"/>
<stop offset="0.854167" stop-color="#4D3A1A"/>
<stop offset="1" stop-color="#FCF0D1"/>
</linearGradient>
</defs>
</svg>

<svg xmlns="http://www.w3.org/2000/svg" width="35" height="25" fill="none"><mask id="c" fill="#fff"><path d="M11.011.727V24h-4.92V5.398h-.136l-5.33 3.34V4.376L6.386.727zm14.463 23.591a10.5 10.5 0 0 1-3.465-.602q-1.66-.591-2.978-1.92-1.317-1.33-2.09-3.523-.762-2.193-.762-5.387.012-2.931.67-5.238.67-2.318 1.91-3.932 1.25-1.614 2.988-2.455Q23.487.41 25.645.41q2.33 0 4.114.91 1.783.897 2.863 2.442a7.4 7.4 0 0 1 1.318 3.466h-4.852q-.285-1.216-1.193-1.909t-2.25-.693q-2.273 0-3.455 1.977-1.17 1.977-1.193 5.375h.16a5.4 5.4 0 0 1 1.408-1.761A6.4 6.4 0 0 1 24.6 9.09a7.3 7.3 0 0 1 2.42-.398q2.07 0 3.683.977a6.93 6.93 0 0 1 2.545 2.66q.932 1.693.932 3.874 0 2.364-1.102 4.205-1.091 1.841-3.057 2.887-1.954 1.034-4.546 1.022m-.022-3.864q1.136 0 2.034-.545a3.9 3.9 0 0 0 1.409-1.477q.51-.931.511-2.091 0-1.16-.511-2.08a3.85 3.85 0 0 0-1.386-1.465q-.887-.546-2.023-.546-.852 0-1.58.318a4 4 0 0 0-1.261.886 4.3 4.3 0 0 0-.841 1.319 4.1 4.1 0 0 0-.307 1.58q0 1.125.512 2.056a4.1 4.1 0 0 0 1.409 1.489q.897.556 2.034.556"/></mask><path fill="url(#a)" d="M11.011.727V24h-4.92V5.398h-.136l-5.33 3.34V4.376L6.386.727zm14.463 23.591a10.5 10.5 0 0 1-3.465-.602q-1.66-.591-2.978-1.92-1.317-1.33-2.09-3.523-.762-2.193-.762-5.387.012-2.931.67-5.238.67-2.318 1.91-3.932 1.25-1.614 2.988-2.455Q23.487.41 25.645.41q2.33 0 4.114.91 1.783.897 2.863 2.442a7.4 7.4 0 0 1 1.318 3.466h-4.852q-.285-1.216-1.193-1.909t-2.25-.693q-2.273 0-3.455 1.977-1.17 1.977-1.193 5.375h.16a5.4 5.4 0 0 1 1.408-1.761A6.4 6.4 0 0 1 24.6 9.09a7.3 7.3 0 0 1 2.42-.398q2.07 0 3.683.977a6.93 6.93 0 0 1 2.545 2.66q.932 1.693.932 3.874 0 2.364-1.102 4.205-1.091 1.841-3.057 2.887-1.954 1.034-4.546 1.022m-.022-3.864q1.136 0 2.034-.545a3.9 3.9 0 0 0 1.409-1.477q.51-.931.511-2.091 0-1.16-.511-2.08a3.85 3.85 0 0 0-1.386-1.465q-.887-.546-2.023-.546-.852 0-1.58.318a4 4 0 0 0-1.261.886 4.3 4.3 0 0 0-.841 1.319 4.1 4.1 0 0 0-.307 1.58q0 1.125.512 2.056a4.1 4.1 0 0 0 1.409 1.489q.897.556 2.034.556"/><path fill="url(#b)" d="M11.011.727h1v-1h-1zm0 23.273v1h1v-1zm-4.92 0h-1v1h1zm0-18.602h1v-1h-1zm-.136 0v-1h-.288l-.244.152zm-5.33 3.34h-1v1.808l1.531-.96zm0-4.363L.09 3.53l-.465.295v.55zM6.386.727v-1h-.29l-.245.155zm3.625 0V24h2V.727zm1 22.273h-4.92v2h4.92zm-3.92 1V5.398h-2V24zm-1-19.602h-.136v2h.136zm-.668.152L.093 7.891l1.063 1.695 5.33-3.341zM1.625 8.74V4.375h-2v4.364zm-.465-3.52L6.92 1.573l-1.07-1.69L.091 3.53zm5.226-3.492h4.625v-2H6.386zm19.088 22.591-.006 1h.002zm-3.465-.602-.336.942h.002zm-2.978-1.92-.71.704zm-2.09-3.523-.945.328.001.004zm-.762-5.387-1-.003v.003zm.67-5.238-.96-.278-.001.003zm1.91-3.932-.791-.613-.003.004zm2.988-2.455.436.9.004-.002zm8.012.057-.454.891.004.002zm2.863 2.443-.82.573.003.004zm1.318 3.466v1h1.126l-.133-1.117zm-4.852 0-.974.228.18.772h.794zm-6.898-.625-.858-.513-.002.004zm-1.193 5.375-1-.006-.007 1.006h1.007zm.16 0v1h.614l.278-.549zm1.408-1.761.635.773zM24.6 9.09l.322.947.006-.002zm6.103.58-.518.855.004.002zm2.375 10.738-.858-.514-.003.004zm-3.057 2.887.468.883h.001zm-2.534-3.387.52.855zm1.409-1.477.877.48zm0-4.17-.879.477.005.008zm-1.386-1.466.524-.852zm-3.603-.228-.4-.916-.006.002zm-1.261.886-.721-.692-.008.008zm-.841 1.319.924.383.002-.005zm.205 3.636-.877.481.004.008zm1.409 1.489-.532.846.005.003zm2.063 3.42a9.5 9.5 0 0 1-3.139-.545l-.667 1.886a11.5 11.5 0 0 0 3.793.66zm-3.137-.544c-.956-.34-1.823-.896-2.603-1.683l-1.42 1.409c.978.985 2.096 1.71 3.352 2.158zm-2.603-1.683c-.752-.759-1.38-1.795-1.857-3.15l-1.887.664c.553 1.569 1.319 2.88 2.324 3.895zm-1.856-3.146c-.46-1.326-.706-3.003-.706-5.059h-2c0 2.202.262 4.116.817 5.715zm-.706-5.055c.007-1.882.223-3.535.632-4.968l-1.923-.549c-.47 1.643-.701 3.483-.709 5.51zm.631-4.964c.419-1.448 1.005-2.641 1.742-3.601l-1.587-1.218c-.914 1.191-1.6 2.62-2.076 4.263zm1.74-3.598c.743-.96 1.62-1.677 2.633-2.166l-.871-1.8c-1.306.63-2.422 1.55-3.344 2.742zm2.637-2.169c1.007-.493 2.153-.75 3.458-.75v-2c-1.574 0-3.027.312-4.338.954zm3.458-.75c1.42 0 2.632.277 3.66.8l.907-1.782C28.862-.26 27.33-.59 25.646-.59zm3.664.802c1.05.529 1.874 1.237 2.493 2.123l1.64-1.145c-.82-1.175-1.906-2.096-3.234-2.764zm2.496 2.127a6.4 6.4 0 0 1 1.142 3.007l1.986-.235a8.4 8.4 0 0 0-1.494-3.925zm2.135 1.89h-4.852v2h4.852zM30.062 7c-.237-1.015-.753-1.86-1.56-2.477l-1.213 1.59c.403.308.683.735.825 1.342zm-1.56-2.477c-.81-.617-1.783-.898-2.857-.898v2c.714 0 1.24.181 1.643.488zm-2.857-.898c-1.873 0-3.348.85-4.313 2.464l1.717 1.026c.61-1.02 1.438-1.49 2.596-1.49zM21.33 6.093c-.904 1.526-1.317 3.514-1.333 5.878l2 .013c.015-2.167.397-3.762 1.054-4.872zm-.333 6.884h.16v-2h-.16zm1.052-.549a4.4 4.4 0 0 1 1.15-1.439l-1.268-1.546a6.4 6.4 0 0 0-1.667 2.083zm1.152-1.44a5.4 5.4 0 0 1 1.72-.95l-.643-1.894a7.4 7.4 0 0 0-2.348 1.3zm1.726-.952a6.3 6.3 0 0 1 2.093-.343v-2a8.3 8.3 0 0 0-2.748.453zm2.093-.343c1.214 0 2.259.285 3.164.833l1.036-1.71c-1.247-.756-2.657-1.123-4.2-1.123zm3.168.835a5.93 5.93 0 0 1 2.183 2.284l1.752-.965a7.93 7.93 0 0 0-2.908-3.035zm2.183 2.284c.53.963.808 2.085.808 3.393h2c0-1.601-.343-3.063-1.056-4.358zm.808 3.393c0 1.413-.328 2.634-.96 3.69l1.716 1.028c.837-1.398 1.244-2.98 1.244-4.718zm-.963 3.694c-.63 1.063-1.51 1.9-2.666 2.514l.94 1.765c1.465-.78 2.622-1.867 3.447-3.26zm-2.664 2.512c-1.134.6-2.482.914-4.073.907l-.009 2c1.864.008 3.546-.36 5.018-1.139zm-4.1-.957c.925 0 1.785-.224 2.553-.69l-1.038-1.71c-.43.261-.925.4-1.515.4zm2.553-.69a4.9 4.9 0 0 0 1.767-1.851l-1.754-.962c-.257.47-.605.832-1.052 1.104zm1.767-1.851c.429-.782.634-1.647.634-2.572h-2c0 .62-.135 1.15-.388 1.61zm.634-2.572c0-.925-.205-1.789-.637-2.565l-1.748.971c.25.45.385.974.385 1.594zm-.632-2.557a4.85 4.85 0 0 0-1.741-1.84l-1.049 1.703c.441.271.782.63 1.032 1.092zm-1.741-1.84c-.763-.47-1.622-.694-2.547-.694v2c.59 0 1.08.14 1.498.397zm-2.547-.694c-.696 0-1.36.13-1.98.402l.801 1.832a2.9 2.9 0 0 1 1.179-.234zm-1.986.404a5 5 0 0 0-1.576 1.108l1.442 1.385q.41-.428.946-.665zm-1.584 1.116a5.3 5.3 0 0 0-1.038 1.624l1.852.757q.24-.584.643-1.011zm-1.035 1.62a5.1 5.1 0 0 0-.384 1.962h2c0-.436.079-.831.23-1.196zm-.384 1.962c0 .908.208 1.76.635 2.538l1.753-.962a3.2 3.2 0 0 1-.388-1.576zm.64 2.546a5.1 5.1 0 0 0 1.749 1.846l1.064-1.693c-.447-.28-.8-.652-1.07-1.131zm1.753 1.85c.77.476 1.633.706 2.562.706v-2c-.586 0-1.08-.14-1.507-.406z" mask="url(#c)"/><defs><linearGradient id="a" x1="30" x2="30" y1="25" y2="0" gradientUnits="userSpaceOnUse"><stop stop-color="#FFF0DA"/><stop offset=".042" stop-color="#94641E"/><stop offset=".828" stop-color="#FFF2DB"/><stop offset=".938" stop-color="#EAC885"/><stop offset=".979" stop-color="#FBF5D1"/><stop offset="1" stop-color="#BD9A4B"/><stop offset="1" stop-color="#ECD8A3"/></linearGradient><linearGradient id="b" x1="17.5" x2="17.5" y1="4.244" y2="21.346" gradientUnits="userSpaceOnUse"><stop stop-color="#FCF6D1"/><stop offset=".104" stop-color="#BD9457"/><stop offset=".25" stop-color="#E3CA89"/><stop offset=".698" stop-color="#FEE8C8"/><stop offset=".854" stop-color="#4D3A1A"/><stop offset="1" stop-color="#FCF0D1"/></linearGradient></defs></svg>
